src/components/00-materials/images-raw/Plug.svg

<svg width="96" height="96" viewBox="0 0 96 96" fill="none" xmlns="http://www.w3.org/2000/svg">
<path d="M57.83 14.8701V30.9101M48 53.9201V83.1301V53.9201ZM31.61 30.9101V37.4901C31.6074 39.6451 32.0292 41.7795 32.8515 43.7715C33.6737 45.7634 34.8803 47.5739 36.4022 49.0996C37.9242 50.6253 39.7317 51.8362 41.7217 52.6633C43.7116 53.4904 45.845 53.9175 48 53.9201C50.155 53.9175 52.2884 53.4904 54.2783 52.6633C56.2683 51.8362 58.0758 50.6253 59.5978 49.0996C61.1197 47.5739 62.3263 45.7634 63.1485 43.7715C63.9708 41.7795 64.3926 39.6451 64.39 37.4901V30.9101H31.61ZM38.17 14.8701V30.9101V14.8701Z" stroke="#00008F" stroke-width="2" stroke-linecap="round" stroke-linejoin="round"/>
</svg>

<svg width="96" height="96" viewBox="0 0 96 96" fill="none" xmlns="http://www.w3.org/2000/svg"><path d="M57.83 14.87v16.04M48 53.92v29.21-29.21zM31.61 30.91v6.58A16.41 16.41 0 0048 53.92a16.41 16.41 0 0016.39-16.43v-6.58H31.61zm6.56-16.04v16.04-16.04z" stroke="#00008F" stroke-width="2" stroke-linecap="round" stroke-linejoin="round"/></svg>
